app/dist/common/images/enstar-group.svg

<svg height="18" width="18" xmlns="http://www.w3.org/2000/svg"><path d="m0 0h18v18h-18z" fill="#f0f3fa"/><path d="m9.056 11.43-.778 1.57h4.632l.59-1.82z" fill="#3d355e"/><path d="m7.06 13 .612-1.443-4.172.147-.5 1.296z" fill="#3697db"/><path d="m3.527 10h4.79l.273-1h-2.933l.312-1h2.621l.343-1h-2.726l.293-1h2.72l.378-1h-4.618l-1.452 5zm5.209 0h1.527l.76-2.689.987 2.689h1.771l1.329-5h-1.534l-.807 3.231-.921-3.231h-1.758l-1.355 5z" fill="#211b4b"/></svg>

<!-- by TradingView --><svg width="18" height="18" xmlns="http://www.w3.org/2000/svg"><path fill="#F0F3FA" d="M0 0h18v18H0z"/><path d="M9.056 11.43L8.278 13h4.632l.59-1.82-4.444.25z" fill="#3D355E"/><path d="M7.06 13l.612-1.443-4.172.147L3 13h4.06z" fill="#3697DB"/><path d="M3.527 10h4.79l.273-1H5.657l.312-1H8.59l.343-1H6.207L6.5 6h2.72l.378-1H4.98l-1.452 5zM8.736 10h1.527l.76-2.689L12.01 10h1.771l1.329-5h-1.534l-.807 3.231L11.848 5H10.09l-1.355 5z" fill="#211B4B"/></svg>
